guacamole/src/integration-test/resources/baseline/guacamole_optimized.svg

<svg xmlns="http://www.w3.org/2000/svg" xmlns:serif="http://www.serif.com/" xmlns:xlink="http://www.w3.org/1999/xlink" height="100%" style="fill-rule:evenodd;clip-rule:evenodd;stroke-linejoin:round;stroke-miterlimit:2;" version="1.1" viewBox="0 0 1280 800" width="100%" xml:space="preserve"><g transform="matrix(1,0,0,1.22164,-1.3093,-65.5161)"><clipPath id="_clip1"><path d="M859.613,320.594L294.248,265.525l-9.899,101.624l565.365,55.069l9.899,-101.624Z"/></clipPath><g clip-path="url(#_clip1)"><path d="M445.029,297.939c5.114,-0.903 9.772,-2.796 13.652,-5.419c5.715,7.078 15.593,11.759 26.81,11.759c9.07,0 17.265,-3.061 23.091,-7.975c6.293,2.05 13.528,3.217 21.221,3.217c9.207,0 17.757,-1.671 24.823,-4.527c3.985,10.634 16.2,18.384 30.633,18.384c5.004,0 9.742,-0.932 13.963,-2.593c5.586,6.154 16.014,10.297 27.946,10.297c6.212,0 12.017,-1.123 16.943,-3.069c5.859,6.076 14.99,9.985 25.241,9.985c8.016,0 15.347,-2.39 20.964,-6.337c5.922,4.399 14.697,7.186 24.485,7.186c8.325,0 15.918,-2.017 21.645,-5.326c5.781,6.742 15.414,11.161 26.313,11.161c6.401,0 12.365,-1.524 17.369,-4.149c4.311,2.608 9.364,4.307 14.813,4.787c4.888,4.529 12.538,7.75 21.391,8.668c5.872,5.786 14.779,9.48 24.742,9.48c0.569,0 1.133,-0.012 1.694,-0.036c-3.039,3.143 -4.794,6.845 -4.794,10.807c0,7.052 5.56,13.282 14.032,16.998C829.272,454.418 703.604,500.927 558.064,486.751C418.852,473.191 308.194,408.66 291.672,336.394c7.886,-3.759 12.996,-9.763 12.996,-16.524c0,-0.574 -0.037,-1.143 -0.109,-1.705c2.048,0.261 4.166,0.398 6.333,0.398c12.091,0 22.637,-4.254 28.166,-10.544c2.761,0.587 5.649,0.899 8.622,0.899c3.64,0 7.153,-0.467 10.461,-1.336c5.857,5.223 14.31,8.504 23.702,8.504c9.538,0 18.106,-3.384 23.972,-8.748c3.428,0.792 7.124,1.225 10.978,1.225c12.142,0 22.726,-4.29 28.236,-10.624Zm391.561,3.708l0.171,0.247c-0.195,0.021 -0.39,0.044 -0.585,0.068c0.089,-0.178 0.175,-0.358 0.258,-0.539l0.156,0.224ZM324.899,255.368c-1.997,-0.866 -4.122,-1.565 -6.344,-2.075C367.036,204.39 470.731,176.906 587.14,188.244c89.86,8.753 167.823,38.743 216.25,78.343c-13.186,1.011 -24.053,8.509 -27.67,18.504c-3.963,-1.425 -8.349,-2.216 -12.961,-2.216c-4.671,0 -9.108,0.811 -13.11,2.269v-0.004c0,-14.297 -14.341,-25.904 -32.004,-25.904c-15.531,0 -28.494,8.974 -31.397,20.859c-4.905,-2.474 -10.695,-3.904 -16.896,-3.904c-1.139,0 -2.264,0.048 -3.372,0.142c0,-0.087 0.002,-0.175 0.002,-0.263c0,-14.297 -19.699,-25.904 -43.963,-25.904c-15.151,0 -28.523,4.526 -36.429,11.406c-0.111,0 -0.221,-0.002 -0.331,-0.002c-5.179,0 -10.072,0.998 -14.402,2.768c-6.338,-9.719 -22.338,-16.625 -41.054,-16.625c-11.859,0 -22.627,2.773 -30.539,7.277c-4.172,-1.614 -8.843,-2.518 -13.773,-2.518c-7.795,0 -14.942,2.26 -20.496,6.014c-5.715,-7.078 -15.592,-11.759 -26.81,-11.759c-6.402,0 -12.367,1.525 -17.371,4.149c-6.336,-9.722 -22.339,-16.63 -41.058,-16.63c-17.503,0 -32.63,6.039 -39.702,14.771c-5.677,1.06 -10.849,3.279 -15.155,6.351Z" style="fill:rgb(63,178,73);"/></g></g><path d="M253.152,327.315c-1.069,-3.786 0.192,-7.847 3.217,-10.363c3.025,-2.516 7.248,-3.015 10.776,-1.274c95.347,46.304 216.254,73.994 347.728,73.931c95.15,-0.046 184.752,-14.622 263.121,-40.271c3.702,-1.244 7.789,-0.216 10.463,2.631c2.673,2.846 3.443,6.99 1.969,10.607C839.32,484.649 718.719,570.54 578.187,570.608C424.366,570.682 294.324,467.908 253.152,327.315Z" style="fill:rgb(29,29,29);"/></svg>

<svg xmlns="http://www.w3.org/2000/svg" xmlns:serif="http://www.serif.com/" xmlns:xlink="http://www.w3.org/1999/xlink" height="100%" style="fill-rule:evenodd;clip-rule:evenodd;stroke-linejoin:round;stroke-miterlimit:2;" version="1.1" viewBox="0 0 1280 800" width="100%" xml:space="preserve"><g transform="matrix(1,0,0,1.22164,-1.3093,-65.5161)"><clipPath id="_clip1"><path d="M859.613,320.594L294.248,265.525L284.349,367.149l565.365,55.069L859.613,320.594Z"/></clipPath><g clip-path="url(#_clip1)"><path d="M445.029,297.939C450.143,297.036 454.801,295.143 458.681,292.52C464.396,299.598 474.274,304.279 485.491,304.279C494.561,304.279 502.756,301.218 508.582,296.304C514.875,298.354 522.11,299.521 529.803,299.521C539.01,299.521 547.56,297.85 554.626,294.994C558.611,305.628 570.826,313.378 585.259,313.378C590.263,313.378 595,312.446 599.222,310.785C604.808,316.939 615.236,321.082 627.168,321.082C633.38,321.082 639.185,319.959 644.111,318.013C649.97,324.089 659.101,327.998 669.352,327.998C677.368,327.998 684.699,325.608 690.316,321.661C696.238,326.06 705.013,328.847 714.801,328.847C723.126,328.847 730.719,326.83 736.446,323.521C742.227,330.263 751.86,334.682 762.759,334.682C769.16,334.682 775.124,333.158 780.128,330.533C784.439,333.141 789.492,334.84 794.941,335.32C799.829,339.849 807.479,343.07 816.332,343.988C822.204,349.774 831.111,353.468 841.074,353.468C841.643,353.468 842.207,353.456 842.768,353.432C839.729,356.575 837.974,360.277 837.974,364.239C837.974,371.291 843.534,377.521 852.006,381.237C829.272,454.418 703.604,500.927 558.064,486.751C418.852,473.191 308.194,408.66 291.672,336.394C299.558,332.635 304.668,326.631 304.668,319.87C304.668,319.296 304.631,318.727 304.559,318.165C306.607,318.426 308.725,318.563 310.892,318.563C322.983,318.563 333.529,314.309 339.058,308.019C341.819,308.606 344.707,308.918 347.68,308.918C351.32,308.918 354.833,308.451 358.141,307.582C363.998,312.805 372.451,316.086 381.843,316.086C391.381,316.086 399.949,312.702 405.815,307.338C409.243,308.13 412.939,308.563 416.793,308.563C428.935,308.563 439.519,304.273 445.029,297.939ZM836.59,301.647L836.761,301.894C836.566,301.915 836.371,301.938 836.176,301.962C836.265,301.784 836.351,301.604 836.434,301.423L836.59,301.647ZM324.899,255.368C322.902,254.502 320.777,253.803 318.555,253.293C367.036,204.39 470.731,176.906 587.14,188.244C677,196.997 754.963,226.987 803.39,266.587C790.204,267.598 779.337,275.096 775.72,285.091C771.757,283.666 767.371,282.875 762.759,282.875C758.088,282.875 753.651,283.686 749.649,285.144L749.649,285.14C749.649,270.843 735.308,259.236 717.645,259.236C702.114,259.236 689.151,268.21 686.248,280.095C681.343,277.621 675.553,276.191 669.352,276.191C668.213,276.191 667.088,276.239 665.98,276.333C665.981,276.246 665.982,276.158 665.982,276.07C665.982,261.773 646.283,250.166 622.019,250.166C606.868,250.166 593.496,254.692 585.59,261.572C585.479,261.571 585.369,261.57 585.259,261.57C580.08,261.57 575.187,262.568 570.857,264.338C564.519,254.619 548.519,247.713 529.803,247.713C517.944,247.713 507.176,250.486 499.264,254.99C495.092,253.376 490.421,252.472 485.491,252.472C477.696,252.472 470.549,254.732 464.995,258.486C459.28,251.408 449.403,246.727 438.185,246.727C431.783,246.727 425.818,248.252 420.814,250.876C414.478,241.154 398.475,234.246 379.756,234.246C362.253,234.246 347.126,240.285 340.054,249.017C334.377,250.077 329.205,252.296 324.899,255.368Z" style="fill:rgb(63,178,73);"/></g></g><path d="M253.152,327.315C252.083,323.529 253.344,319.468 256.369,316.952C259.394,314.436 263.617,313.937 267.145,315.678C362.492,361.982 483.399,389.672 614.873,389.609C710.023,389.563 799.625,374.987 877.994,349.338C881.696,348.094 885.783,349.122 888.457,351.969C891.13,354.815 891.9,358.959 890.426,362.576C839.32,484.649 718.719,570.54 578.187,570.608C424.366,570.682 294.324,467.908 253.152,327.315Z" style="fill:rgb(29,29,29);"/></svg>
